X: 121827
T: Lynch's HP
T: Cornph\'iopa U\'i Loingsigh
S: B.Breathnach:"Ceol Rince na hEireann" IV/215
Z: B.Black
L: 1/8
M: 4/4
R: hornpipe
K: D
(3ABc|d2 dA BAFD|CDEF GBAG|FAdc Bdgf|(3efe (3dcB A2 (3ABc|
d2 dA BAFD|CDEF GBAG|FAdc Bgec|d2 dd d2 :|
cd|eA (3AAA fA (3AAA|gAaA eA (3AAA|gfed edcB|AFdB AFDF|
d2 dA BAFD|CDEF GBAG|FAdc Bgec|d2 dd d2 :|
